patterns/atoms/space/icon.svg

<svg width="24" height="24" xmlns="http://www.w3.org/2000/svg">
  <path d="M3.5 6.5h17-17zm0 11h17-17zm0-2v-7h17v7h-17zm.5-7c-.27614237 0-.5.22385763-.5.5v6c0 .2761424.22385763.5.5.5h16c.2761424 0 .5-.2238576.5-.5V9c0-.27614237-.2238576-.5-.5-.5H4z" fill="#5C5C5C"/>
</svg>

<?xml version="1.0" encoding="UTF-8"?>
<svg width="24px" height="24px" viewBox="0 0 24 24" version="1.1" xmlns="http://www.w3.org/2000/svg" xmlns:xlink="http://www.w3.org/1999/xlink">
    <g  fill="#5C5C5C">
        <path d="M3.5,6.5 L20.5,6.5 L3.5,6.5 Z M3.5,17.5 L20.5,17.5 L3.5,17.5 Z M3.5,15.5 L3.5,8.5 L20.5,8.5 L20.5,15.5 L3.5,15.5 Z M4,8.5 C3.72385763,8.5 3.5,8.72385763 3.5,9 L3.5,15 C3.5,15.2761424 3.72385763,15.5 4,15.5 L20,15.5 C20.2761424,15.5 20.5,15.2761424 20.5,15 L20.5,9 C20.5,8.72385763 20.2761424,8.5 20,8.5 L4,8.5 Z"></path>
    </g>
</svg>
